X:1
T:Beautiful Vale of Rest
T:William Howard Doane
T:Beautiful Vale of Rest
T:Public Domain
T:Public Domain
T:Public Domain
C:William Howard Doane
Z:Public Domain
%%score ( 1 2 ) ( 3 4 )
L:1/8
M:6/8
K:C
V:1 treble 
V:2 treble 
V:3 bass 
V:4 bass 
V:1
 [EG] | [EG]2 [^D^F] [EG]2 [EG] | [FA]2 [GB] [Ac]3 | [FB][FA][FG] (BA)[FG] | [E-c]3 [EG]2 [EG] | %5
w: 1.~My|soul with rap- ture|waits for thee,|Beau- ti- ful vale * of|My * home|
w: 2.~Thy|ra- diant fields and|glow- ing skies,|Beau- ti- ful vale * of|Too * pure|
w: 3.~The|joys of earth, how|soon they fade!|Beau- ti- ful vale * of|Like * morn-|
w: 4.~O!|who would dwell for-|ev- er here,|Beau- ti- ful vale * of|With * joy,|
 [EG]2 [^D^F] [EG]2 [EG] | [FA]2 [GB] [Ac]3 | [FB][FA][FG] (BA)[FG] | [Ec]3- [Ec]2 [Ec] | %9
w: be- yond the roll-|ing sea, Beau-|ti- ful vale of * rest;|long * to|
w: and bright for mor-|tal eyes, Beau-|ti- ful vale of * rest;|side * the|
w: ing dew or even-|ing shade, Beau-|ti- ful vale of * rest;|when * we|
w: un- fad- ing joy|so near, Beau-|ti- ful vale of * rest;|may * I|
 [Fd]2 [Ec] [Fd]2 [Ec] | ([Fd][Ge])[Fd] [Ec]2 [Gc] | [Ac]2 [Bd] [Ac]2 [FA] | %12
w: sing thy plea- sures|o’er, * The glo- ries|of thy tran- quil|
w: liv- ing stream that|flows, * The wea- ry|heart shall find re-|
w: reach thy gold- en|strand, * Our gen- tle|Sav- ior’s prom- ised|
w: live that I may|wear * A star- ry|crown for- ev- er|
 [EG]2 [CE] [EG]2 [EG] | [EG]2 [^D^F] [EG]2 [EG] | [FA]2 [GB] [Ac]3 | [EG]2 [Ec] (BA)[FB] | %16
w: shore, Where pain and|sor- row come no|more— Hap- py|vale of rest. * *|
w: pose— Thy pearl- y|gates shall nev- er|close, Hap- py|vale of rest. * Beau-|
w: land, We’ll sing with|all the an- gel|band, Hap- py|vale of rest. * *|
w: there, And breathe thy|sweet and balm- y|air, Hap- py|vale of rest. * *|
 [Ec]3- [Ec]3 ||"^Refrain" [Ac][Ac][Ac] ([Ac][GB])[FA] | ([E-G]3 [CE]3) | [GB][GB][GB] (BA)[FB] | %20
w: ||||
w: ful *|vale of rest, Beau- * ti-|ful *|vale of rest, My * soul|
w: ||||
w: ||||
 [Ec]3- [Ec]2 [GB] | [FA]2 [GB] (dc)[FA] | [EG]2 [CE] [FA]2 [Ec] | [GB]2 [GB] ([GB][FA])[FB] | %24
w: ||||
w: rap- * ture|longs for thee, * O!|ly vale of rest.||
w: ||||
w: ||||
 [Ec]3- [Ec]3 |] %25
w: |
w: |
w: |
w: |
V:2
 x | x6 | x6 | x3 F2 x | x6 | x6 | x6 | x3 F2 x | x6 | x6 | x6 | x6 | x6 | x6 | x6 | x3 F2 x | %16
w: |||rest;||||I|||||||||
w: |||rest;||||Be-||||||||ti-|
w: |||rest;||||Yet,|||||||||
w: |||rest;||||O!|||||||||
 x6 || x6 | x6 | x3 F2 x | x6 | x3 F2 x | x6 | x6 | x6 |] %25
w: |||||||||
w: |||with||love-||||
w: |||||||||
w: |||||||||
V:3
 [C,C] | [C,C]2 [C,C] [C,C]2 [C,C] | [F,C]2 [F,C] [F,C]3 | [G,D][G,C][G,B,] (DC)[G,B,] | %4
 [C,-G,]3 [C,C]2 [C,C] | [C,C]2 [C,C] [C,C]2 [C,C] | [F,C]2 [F,C] [F,C]3 | %7
 [G,D][G,C][G,B,] [G,D]2 [G,D] | [C,C]3- [C,C]2 [C,C] | [G,B,]2 [G,C] [G,B,]2 [G,C] | %10
 (B,C)[G,B,] [C,C]2 [E,C] | [F,C]2 [F,C] [F,C]2 [F,C] | [C,C]2 [C,G,] [C,C]2 [C,C] | %13
 [C,C]2 [C,C] [C,C]2 [C,C] | [F,C]2 [F,C] [F,C]3 | [G,C]2 [G,C] [G,,D]2 [G,,D] | [C,C]3- [C,C]3 || %17
 [F,C][F,CF][F,CF] [F,CF]2 [F,C] | [C,-C]3 [C,G,]3 | [G,D][G,D][G,D] [G,D]2 [G,D] | %20
 [C,C]3- [C,C]2 [C,C] | [F,C]2 [F,C] (A,C)[F,C] | [C,C]2 [C,G,] [C,C]2 [C,G,] | %23
 [G,D]2 [G,D] ([G,,D-][G,,D])[G,,D] | [C,C]3- [C,C]3 |] %25
V:4
 x | x6 | x6 | x3 G,2 x | x6 | x6 | x6 | x6 | x6 | x6 | G,2 x4 | x6 | x6 | x6 | x6 | x6 | x6 || %17
 x6 | x6 | x6 | x6 | x3 F,2 x | x6 | x6 | x6 |] %25

